X: 10742
T: PASTHEEN FUEN
O: Irish air.
Q: "Jig time."
%R: jig
B: W. Hamilton "Universal Tune-Book" Vol. 1 Glasgow 1844 p.74 #2
S: http://imslp.org/wiki/Hamilton's_Universal_Tune-Book_(Various)
Z: 2016 John Chambers <jc:trillian.mit.edu>
M: 6/4
L: 1/8
K: Em
% - - - - - - - - - - - - - - - - - - - - - - - - -
B2 |\
e3(gfe) ^d2B2(ef) | g2g2g2 f2f2f2 |\
e3g(fe) ^d2B2e2 | ^d2B2B2 B4B2 |\
e3g(fe) ^d2B2(ef) | g2g2g2 f2f2f2 |\
(ed)(cB)(AG) A3c (BA) | G2E2E2 E4 :|
|: (EF) |\
G2(GA)(GA) d2B2B2 | c2A2A2 d2B2B2 |\
G2(GB)(df) g3fe2 | d2(BA)(GA) G2E2E2 |\
G2(GA)(GA) d2B2B2 | c2A2A2 g2g2(fe) |\
(ed)(cB)(AG) (AGAc)(BA) | G2E2E2 E4 :|
% - - - - - - - - - - - - - - - - - - - - - - - - -

%%sep 1 1 500
%%sep 1 1 500

